public/img/logo-s.svg

<svg width="505" height="107" viewBox="0 0 505 107" fill="none" xmlns="http://www.w3.org/2000/svg">
<path d="M505 38.847C499.448 38.847 493.171 38.9121 485.834 41.4341C478.949 43.8001 470.132 48.71 460.696 59.812L459.781 60.905C445.183 78.631 431.601 90.391 417.854 97.577C403.717 104.968 390.73 106.829 378.75 106.829C366.771 106.829 353.784 104.968 339.646 97.578C326.329 90.617 313.166 79.3641 299.084 62.5521L297.719 60.907C287.939 49.031 278.773 43.8781 271.666 41.4361C265.246 39.2291 259.637 38.9041 254.616 38.8561L252.5 38.849C246.948 38.849 240.671 38.9141 233.334 41.4361C226.449 43.8021 217.632 48.712 208.196 59.814L207.281 60.907C192.683 78.633 179.101 90.392 165.354 97.578C151.216 104.968 138.229 106.829 126.25 106.829C114.271 106.829 101.284 104.969 87.1465 97.579C73.8287 90.618 60.6656 79.3641 46.584 62.5521L45.2188 60.907C35.4385 49.031 26.273 43.8781 19.166 41.4361C11.8289 38.9141 5.55192 38.849 0 38.849V0.00304637C6.1019 0.00304637 17.9342 -0.0629544 31.791 4.69905C45.8781 9.54005 60.9921 18.954 75.2051 36.213L76.377 37.624C88.4045 51.981 97.7616 59.295 105.142 63.152C112.37 66.931 118.806 67.983 126.25 67.983C133.693 67.983 140.129 66.931 147.357 63.152C154.976 59.17 164.701 51.5051 177.295 36.2121L177.962 35.409C191.98 18.661 206.842 9.46405 220.709 4.69805C234.566 -0.0639539 246.398 0.00204692 252.5 0.00204692L255.05 0.0090507C261.592 0.0610507 272.166 0.532046 284.291 4.69805C298.378 9.54005 313.492 18.9531 327.705 36.2121L328.877 37.624C340.904 51.981 350.262 59.2941 357.642 63.1511C364.87 66.9301 371.306 67.982 378.75 67.982C386.193 67.982 392.629 66.9301 399.857 63.1511C407.476 59.1691 417.201 51.504 429.795 36.211L430.462 35.407C444.48 18.659 459.342 9.46205 473.209 4.69605C487.066 -0.0659528 498.898 4.80156e-05 505 4.80156e-05V38.847Z" fill="url(#paint0_linear_1399_1226)"/>
<defs>
<linearGradient id="paint0_linear_1399_1226" x1="0" y1="55.772" x2="505" y2="55.772" gradientUnits="userSpaceOnUse">
<stop stop-color="#FFB600"/>
<stop offset="0.331731" stop-color="#FFF200"/>
<stop offset="0.721154" stop-color="#9AEBA3"/>
<stop offset="1" stop-color="#00F4EE"/>
</linearGradient>
</defs>
</svg>

<svg xmlns="http://www.w3.org/2000/svg" width="505" height="107" fill="none" viewBox="0 0 505 107"><path fill="url(#a)" d="M505 38.847c-5.552 0-11.829.065-19.166 2.587-6.885 2.366-15.702 7.276-25.138 18.378l-.915 1.093c-14.598 17.726-28.18 29.486-41.927 36.672-14.137 7.391-27.124 9.252-39.104 9.252-11.979 0-24.966-1.861-39.104-9.251-13.317-6.961-26.48-18.214-40.562-35.026l-1.365-1.645c-9.78-11.876-18.946-17.029-26.053-19.47-6.42-2.208-12.029-2.533-17.05-2.58l-2.116-.008c-5.552 0-11.829.065-19.166 2.587-6.885 2.366-15.702 7.276-25.138 18.378l-.915 1.093c-14.598 17.726-28.18 29.485-41.927 36.671-14.138 7.39-27.125 9.251-39.104 9.251s-24.966-1.86-39.103-9.25c-13.318-6.961-26.481-18.215-40.563-35.027l-1.365-1.645c-9.78-11.876-18.946-17.029-26.053-19.47C11.829 38.913 5.552 38.848 0 38.848V.003c6.102 0 17.934-.066 31.791 4.696C45.878 9.54 60.992 18.954 75.205 36.213l1.172 1.411c12.028 14.357 21.385 21.671 28.765 25.528 7.228 3.779 13.664 4.831 21.108 4.831 7.443 0 13.879-1.052 21.107-4.831 7.619-3.982 17.344-11.647 29.938-26.94l.667-.803c14.018-16.748 28.88-25.945 42.747-30.71C234.566-.065 246.398.001 252.5.001l2.55.007c6.542.052 17.116.523 29.241 4.689 14.087 4.842 29.201 14.255 43.414 31.514l1.172 1.412c12.027 14.357 21.385 21.67 28.765 25.527 7.228 3.78 13.664 4.831 21.108 4.831 7.443 0 13.879-1.052 21.107-4.83 7.619-3.983 17.344-11.648 29.938-26.941l.667-.804c14.018-16.748 28.88-25.945 42.747-30.71C487.066-.067 498.898-.001 505-.001z"/><defs><linearGradient id="a" x1="0" x2="505" y1="55.772" y2="55.772" gradientUnits="userSpaceOnUse"><stop stop-color="#ffb600"/><stop offset=".332" stop-color="#fff200"/><stop offset=".721" stop-color="#9aeba3"/><stop offset="1" stop-color="#00f4ee"/></linearGradient></defs></svg>
